!!!COM: Jules Massenet
!!!CNT: Francais
!!!TXO: Francais
!!!OTL: Se/re/nade du Passant
!!!LYR: Franc5ois Coppe/e
!!!ENC: Jacob Pegg
!!!YOR: Romantic French Song 1830-1870 - David Tunley, ed.,
!!!YOR: New York: Garland Publishing, Inc., 1995, Vol. 6
!!!ODT: 1869/
!!NB: Vocal melody and text only encoded.
!!NB: First instance of melodic material only encoded.
**kern	**silbe
*clef G2	*
*k[]	*
*M6/8	*
!!created: 12/22/03 11:40
!!proofed and posted: 1/22/04 9:41
!!edit time: 30 min.
=6	=6
4r	.
8r	.
4r	.
{8g	{Mi-
=7	=7
[2.cc	-gnon-
=8	=8
4cc]	|
8g	-ne,
8b	Voi-
8a	-ci
8g	l’A-
=9	=9
4.a}	-vril!}
8r	.
{8e	{Le
8e	so-
=10	=10
4g	-leil
8e	re-
(8g	-vient
8f)	|
8e	d’e-
=11	=11
[2.g	-xil;
=12	=12
4.g]}	|}
8r	.
{8e	{Tous
8f	les
=13	=13
(8g	nids
8a)	|
8b	sont
4cc	en
8c	que-
=14	=14
(2.e	-rel-
=15	=15
[4.d)	-les,
4d]}	|}
8r	.
=16	=16
{4d	{L’air
8f	est
4a	pur,
8a	le
=17	=17
(bq	|
4a)	Ciel
8f	le/-
4dd}	-ger,}
8r	.
=18	=18
{4d	{Et
8f	par-
4a	-tout
8a	on
=19	=19
(aq	|
4g)	voit
8e	nei-
[4.cc	-ger
=20	=20
4.cc_	|
8cc]}	|}
8r	.
{8cc	{Des
=21	=21
[2.ff	plu-
=22	=22
8ff]	|
8cc	-mes
8a	de
(8f	tour
8g)	|
8a	-te-
=23	=23
(2.cc	-rel-
=24	=24
eeq	|
2.dd	|
=25	=25
[4.cc)	-les.
4cc]}	|}
8r	.
!! two melodically identical strophes follow.
*-	*-
